X: 5237
T: Broken Lantern, The
R: jig
M: 6/8
K: Cmajor
|:Gcc cBc|Add d^cd|edB G2G|AGE C2G|
Gcc cBc|Add d^cd|edB GAB|c2e c3:|
|:ecg ceg|efg a2g|fdg ecg|dBg G2g|
ecg ceg|efg a2g|fdg ecg|dBg c2g:|

